X:878
T:Paddy Murphy's Wife
T:Braes Of Glendochart, The
R:reel
C:Alexander McGlashan, Scotland (c.1740-1797)
D:Matt Molloy: Stony Steps
D:Chulrua: The Singing Kettle
Z:id:hn-reel-878
M:C|
L:1/8
K:Dmix
~F3A (3Bcd AF | G2cG EFGE | FDAD BDAF |1 Add^c dBAG :|2 Add^c d4 ||
|: fada fdag | ecgc eg~g2 |1 fada fded | cAGE EDD2 :|2 afge fde^c | d2AG FDD2 ||
P:variations
|: F2AF BFAF | G2cG EG~G2 | FDAD BDAF |1 Adde dBAG :|2 Adde d3e ||
|: fada fdag | ecgc eg~g2 |1 fada fded | cAGE EDD2 :|2 afge fde^c | dBAG FDDE ||
P:more variations
|: FDAD BDAD | G2cG ECAG | FDAD BDAD |1 Ad^ce d2AG :|2 Ad^ce d3e ||
|: fada fdag | egcd efge |1 fade fded | cAGE EDD2 :|2 afge fde^c | dBAG FADE ||
P:even more variations
|: (3FED AD (3Bcd AD | EGcG EGAG | (3FED AD BDAD |1 Ad^ce d2AG :|2 Ad^ce d3e ||
|: (3fga da fdad | egcg ecgc |1 fade fdad | cAGE EDD2 :|2 afge fde^c | d2AG FADE ||

